neogeo/art/logo.svg

<?xml version="1.0" encoding="utf-8"?>
<!-- Generator: Adobe Illustrator 13.0.0, SVG Export Plug-In . SVG Version: 6.00 Build 14948)  -->
<svg version="1.2" baseProfile="tiny"
	 id="Ebene_1" xmlns:rdf="http://www.w3.org/1999/02/22-rdf-syntax-ns#" xmlns:dc="http://purl.org/dc/elements/1.1/" xmlns:cc="http://creativecommons.org/ns#"
	 xmlns="http://www.w3.org/2000/svg" xmlns:xlink="http://www.w3.org/1999/xlink" x="0px" y="0px" width="566.929px"
	 height="96.834px" viewBox="0 0 566.929 96.834" xml:space="preserve">
<g transform="translate(-683.17328,-356.17754)">
	<g transform="matrix(0.93403196,0,0,0.93403196,69.311262,27.640521)">
		<g transform="translate(1.5605469e-5,0)">
			<path fill="#605439" d="M1036.018,414.062h2.403c2.244,0,6.081,0.462,7.662,1.388c1.581,0.92,2.624,1.953,3.126,3.095
				c0.504,1.142,0.759,3.661,0.759,7.551v15.273c0,4.609-4.87,6.957-7.216,7.467c-2.357,0.508-4.646,0.763-6.875,0.763
				c-6.43,0-11.982-1.673-16.662-5.022c-4.674-3.35-8.061-8.586-10.163-15.727c-2.097-7.132-3.143-15.422-3.143-24.892
				c0-7.811,0.958-15.43,2.875-22.852c1.922-7.424,5.188-13.208,9.801-17.36c4.613-4.148,10.395-6.223,17.337-6.223
				c7.266,0,11.518,1.839,16.865,7.398c5.47,5.681,10.717,12.137,13.78,21.614h4.473V351.74h-2.545
				c-0.918,2.787-1.92,4.68-3.015,5.679c-1.1,1.003-2.29,1.502-3.563,1.502c-0.826,0-3.49-0.906-7.99-2.718
				c-4.498-1.814-7.756-2.915-9.763-3.303c-3.699-0.772-6.574-1.162-11.185-1.162c-14.897,0-27.259,5.119-37.085,15.355
				c-9.826,10.245-14.737,22.785-14.737,37.63c0,8.295,1.594,15.792,4.796,22.487c2.511,5.192,5.997,9.857,10.451,14.01
				c4.456,4.147,9.6,7.495,15.422,10.048c5.828,2.543,13.151,3.818,21.969,3.818c6.903,0,13.556-0.713,19.98-2.139
				c6.422-1.43,12.597-3.546,18.55-6.351v-20.525c0-3.597,0.203-5.858,0.613-6.778c0.73-1.752,1.767-3.004,3.114-3.761
				c1.344-0.757,5.016-1.247,8.438-1.494v-3.36h-48.486v3.36L1036.018,414.062z"/>
			<path fill="#605439" d="M1147.468,440.646c-5.525,4.23-12.879,6.344-22.05,6.344h-5.228c-2.802,0-4.826-0.381-6.085-1.152
				c-1.248-0.77-2.112-1.757-2.568-2.959c-0.458-1.202-0.688-4.498-0.688-9.88v-27.567c4.711,0,10.227,0.613,12.703,1.844
				c2.474,1.225,4.646,3.624,6.512,7.191c1.874,3.564,3.099,7.503,3.682,13.092h3.975v-50.731h-3.975
				c-0.78,7.622-2.574,12.739-5.391,16.644c-2.815,3.905-7.356,5.858-13.615,5.858h-3.896v-34.029c-0.031-5.915,5.24-5.23,5.24-5.23
				h6.16c7.448,0,12.521,0.436,15.229,1.305c4.642,1.443,8.235,3.706,10.773,6.787c2.541,3.084,4.508,8.161,5.911,15.241h3.335
				v-28.978h-82.888v3.969h2.614c3.185,0,5.696,0.673,7.528,2.019c1.305,0.914,2.2,2.218,2.679,3.9
				c0.245,1.006,0.366,3.726,0.366,8.153v61.308c0,4.906-0.266,7.938-0.799,9.096c-0.675,1.633-1.644,2.788-2.896,3.463
				c-1.74,1.012-4.031,1.516-6.875,1.516h-2.616v4.611h84.291l5.065-31.174h-4.623c-2.415,8.678-6.386,15.133-11.915,19.361"/>
			<path fill="#605439" d="M1212.688,352.888c-14.125-0.583-26.03,4.02-35.697,13.819c-9.686,9.791-14.514,22.035-14.514,36.713
				c0,13.078,3.718,24.378,11.16,33.907c9.414,12.053,22.738,18.088,39.975,18.088c17.18,0,30.49-6.319,39.908-18.964
				c7.11-9.516,10.667-20.557,10.667-33.104c0-14.679-4.77-26.906-14.297-36.68c-9.537-9.775-21.927-14.366-37.185-13.778
				 M1235.236,431.349c-2.309,6.827-5.531,11.798-9.675,14.901c-3.25,2.434-7.3,3.647-12.153,3.647
				c-7.206,0-12.804-2.821-16.814-8.454c-5.744-8.064-8.619-20.524-8.619-37.39c0-14.192,1.859-25.073,5.581-32.651
				c4.567-9.229,11.227-13.844,19.982-13.844c4.757,0,8.96,1.338,12.609,4.011c3.649,2.671,6.652,7.253,9.004,13.737
				c2.357,6.491,3.534,16.263,3.534,29.341c0,10.98-1.152,19.886-3.463,26.715"/>
		</g>
		<path fill="#605439" d="M899.717,454.844c17.18,0,30.488-6.321,39.908-18.964c7.108-9.527,10.666-20.555,10.666-33.104
			c0-14.679-4.77-26.905-14.299-36.68c-9.535-9.774-21.926-14.364-37.183-13.778c-14.125-0.582-26.03,4.021-35.697,13.82
			c-9.684,9.79-14.514,22.035-14.514,36.713c0,13.077,3.717,24.378,11.162,33.906c9.411,12.053,22.736,18.088,39.974,18.088
			 M879.507,370.885c4.566-9.229,11.227-13.844,19.987-13.844c4.756,0,8.957,1.335,12.606,4.009
			c3.649,2.673,6.651,7.253,9.007,13.737c2.354,6.49,3.532,16.262,3.532,29.332c0,10.98-1.152,19.888-3.462,26.715
			c-2.305,6.827-5.531,11.798-9.675,14.909c-3.248,2.43-7.299,3.645-12.153,3.645c-7.206,0-12.805-2.819-16.817-8.454
			c-5.743-8.065-8.618-20.524-8.618-37.39c0-14.192,1.858-25.073,5.579-32.651"/>
		<path fill="#605439" d="M849.935,420.502h-4.627c-2.414,8.676-6.387,15.133-11.913,19.359c-5.526,4.23-12.879,6.344-22.042,6.344
			h-5.229c-2.801,0-4.823-0.386-6.082-1.15c-1.253-0.773-2.112-1.76-2.57-2.961c-0.457-1.204-0.688-4.499-0.688-9.882v-27.567
			c4.71,0,10.228,0.615,12.705,1.845c2.474,1.224,4.647,3.626,6.513,7.191c1.872,3.566,3.098,7.503,3.681,13.093h3.976v-50.732
			h-3.976c-0.779,7.619-2.575,12.739-5.392,16.644c-2.811,3.906-7.354,5.857-13.613,5.857h-3.897v-34.029
			c-0.032-5.916,5.244-5.23,5.244-5.23h6.155c7.453,0,12.532,0.435,15.24,1.302c4.645,1.443,8.235,3.709,10.774,6.789
			c2.541,3.082,4.51,8.164,5.914,15.239h3.332v-29.001h-82.887v3.994h2.612c3.185,0,5.696,0.674,7.529,2.017
			c1.303,0.914,2.196,2.218,2.676,3.901c0.244,1.007,0.366,3.725,0.366,8.151v61.309c0,4.906-0.265,7.938-0.797,9.088
			c-0.674,1.633-1.644,2.794-2.893,3.465c-1.74,1.012-4.032,1.516-6.882,1.516h-2.612v4.611h84.29l5.067-31.174L849.935,420.502z"/>
		<path fill="#605439" d="M690.849,447.002h-2.237c-3.21,0-6.061-0.985-8.554-2.957c-2.488-1.973-3.734-5.765-3.734-11.392v-59.212
			l64.138,79.957l4.159,0.006v-81.55c0-4.637,0.385-5.983,1.15-7.891c0.765-1.908,1.835-3.285,3.201-4.131
			c1.368-0.844,4.05-1.532,8.04-2.064v-4.149h-31.818v4.149c5.245-0.096,8.991,1.255,11.211,4.057
			c1.626,2.077,2.439,4.135,2.439,10.031v42.707l-49.931-60.944h-30.381v3.291c2.888,0.096,2.991,1.063,4.529,1.88l8.138,8.191
			l-0.011,65.664c0,5.193-1.026,8.867-3.074,11.029c-2.05,2.164-5.684,3.268-10.897,3.316v3.969h33.617v-3.969L690.849,447.002z"/>
		<path fill="#605439" stroke="#000000" stroke-width="0.133" d="M977.66,403.577c0,6.516-5.282,11.796-11.794,11.796
			c-6.517,0-11.797-5.284-11.797-11.796c0-6.517,5.284-11.796,11.797-11.796C972.383,391.781,977.66,397.064,977.66,403.577z"/>
	</g>
</g>
</svg>

<?xml version="1.0" encoding="UTF-8" standalone="no"?>
<!DOCTYPE svg PUBLIC "-//W3C//DTD SVG 1.1//EN" "http://www.w3.org/Graphics/SVG/1.1/DTD/svg11.dtd">
<svg width="100%" height="100%" viewBox="0 0 567 97" version="1.1" xmlns="http://www.w3.org/2000/svg" xmlns:xlink="http://www.w3.org/1999/xlink" xml:space="preserve" xmlns:serif="http://www.serif.com/" style="fill-rule:evenodd;clip-rule:evenodd;stroke-linejoin:round;stroke-miterlimit:2;">
    <g transform="matrix(0.934032,0,0,0.934032,-613.862,-328.537)">
        <g>
            <g transform="matrix(1,0,0,1,1.56055e-05,0)">
                <path d="M1036.02,414.062L1038.42,414.062C1040.66,414.062 1044.5,414.524 1046.08,415.45C1047.66,416.37 1048.71,417.403 1049.21,418.545C1049.71,419.687 1049.97,422.206 1049.97,426.096L1049.97,441.369C1049.97,445.978 1045.1,448.326 1042.75,448.836C1040.39,449.344 1038.11,449.599 1035.88,449.599C1029.44,449.599 1023.89,447.926 1019.22,444.578C1014.54,441.228 1011.15,435.992 1009.05,428.851C1006.96,421.72 1005.91,413.429 1005.91,403.959C1005.91,396.148 1006.87,388.529 1008.78,381.107C1010.71,373.683 1013.97,367.899 1018.59,363.747C1023.2,359.599 1028.98,357.524 1035.92,357.524C1043.19,357.524 1047.44,359.363 1052.79,364.922C1058.26,370.603 1063.5,377.059 1066.57,386.536L1071.04,386.536L1071.04,351.74L1068.5,351.74C1067.58,354.527 1066.58,356.42 1065.48,357.419C1064.38,358.422 1063.19,358.921 1061.91,358.921C1061.09,358.921 1058.42,358.015 1053.93,356.203C1049.43,354.389 1046.17,353.288 1044.16,352.9C1040.46,352.128 1037.59,351.738 1032.98,351.738C1018.08,351.738 1005.72,356.857 995.892,367.093C986.066,377.338 981.156,389.878 981.156,404.723C981.156,413.018 982.751,420.515 985.951,427.21C988.464,432.402 991.948,437.067 996.402,441.22C1000.86,445.367 1006,448.716 1011.82,451.268C1017.65,453.811 1024.97,455.086 1033.79,455.086C1040.7,455.086 1047.35,454.373 1053.77,452.947C1060.19,451.517 1066.37,449.401 1072.32,446.596L1072.32,426.072C1072.32,422.475 1072.53,420.213 1072.94,419.293C1073.67,417.541 1074.7,416.29 1076.05,415.533C1077.39,414.776 1081.07,414.285 1084.49,414.038L1084.49,410.678L1036,410.678L1036,414.038L1036.02,414.062Z" style="fill:white;fill-rule:nonzero;"/>
                <path d="M1147.47,440.646C1141.94,444.876 1134.59,446.99 1125.42,446.99L1120.19,446.99C1117.39,446.99 1115.36,446.609 1114.11,445.838C1112.86,445.068 1111.99,444.081 1111.54,442.879C1111.08,441.677 1110.85,438.381 1110.85,432.999L1110.85,405.432C1115.56,405.432 1121.08,406.045 1123.55,407.276C1126.03,408.501 1128.2,410.9 1130.06,414.467C1131.94,418.032 1133.16,421.97 1133.75,427.559L1137.72,427.559L1137.72,376.828L1133.75,376.828C1132.97,384.45 1131.17,389.567 1128.36,393.472C1125.54,397.377 1121,399.33 1114.74,399.33L1110.84,399.33L1110.84,365.301C1110.81,359.386 1116.09,360.071 1116.09,360.071L1122.25,360.071C1129.69,360.071 1134.77,360.507 1137.48,361.376C1142.12,362.819 1145.71,365.082 1148.25,368.163C1150.79,371.247 1152.76,376.324 1154.16,383.404L1157.49,383.404L1157.49,354.426L1074.61,354.426L1074.61,358.395L1077.22,358.395C1080.4,358.395 1082.92,359.068 1084.75,360.414C1086.05,361.328 1086.95,362.632 1087.43,364.314C1087.67,365.32 1087.79,368.04 1087.79,372.467L1087.79,433.774C1087.79,438.68 1087.53,441.712 1086.99,442.87C1086.32,444.503 1085.35,445.659 1084.1,446.333C1082.36,447.345 1080.07,447.849 1077.22,447.849L1074.61,447.849L1074.61,452.46L1158.9,452.46L1163.96,421.286L1159.34,421.286C1156.92,429.964 1152.95,436.419 1147.42,440.647" style="fill:white;fill-rule:nonzero;"/>
                <path d="M1212.69,352.888C1198.56,352.305 1186.66,356.908 1176.99,366.707C1167.31,376.498 1162.48,388.742 1162.48,403.42C1162.48,416.498 1166.19,427.798 1173.64,437.327C1183.05,449.38 1196.38,455.415 1213.61,455.415C1230.79,455.415 1244.1,449.096 1253.52,436.451C1260.63,426.935 1264.19,415.894 1264.19,403.347C1264.19,388.668 1259.42,376.441 1249.89,366.667C1240.35,356.892 1227.96,352.301 1212.7,352.889M1235.24,431.349C1232.93,438.176 1229.7,443.147 1225.56,446.25C1222.31,448.684 1218.26,449.897 1213.41,449.897C1206.2,449.897 1200.61,447.076 1196.59,441.443C1190.85,433.378 1187.97,420.919 1187.97,404.052C1187.97,389.86 1189.83,378.979 1193.55,371.401C1198.12,362.172 1204.78,357.557 1213.54,357.557C1218.3,357.557 1222.5,358.895 1226.15,361.568C1229.8,364.239 1232.8,368.821 1235.15,375.305C1237.51,381.796 1238.68,391.568 1238.68,404.646C1238.68,415.626 1237.53,424.532 1235.22,431.361" style="fill:white;fill-rule:nonzero;"/>
            </g>
            <path d="M899.717,454.844C916.897,454.844 930.205,448.523 939.625,435.88C946.733,426.353 950.291,415.325 950.291,402.776C950.291,388.097 945.521,375.871 935.992,366.096C926.457,356.322 914.066,351.732 898.809,352.318C884.684,351.736 872.779,356.339 863.112,366.138C853.428,375.928 848.598,388.173 848.598,402.851C848.598,415.928 852.315,427.23 859.76,436.757C869.171,448.81 882.496,454.845 899.734,454.845M879.507,370.885C884.073,361.656 890.734,357.041 899.494,357.041C904.25,357.041 908.451,358.376 912.1,361.05C915.749,363.723 918.751,368.303 921.107,374.787C923.461,381.277 924.639,391.049 924.639,404.119C924.639,415.099 923.487,424.007 921.177,430.834C918.872,437.661 915.646,442.632 911.502,445.743C908.254,448.173 904.203,449.388 899.349,449.388C892.143,449.388 886.544,446.569 882.532,440.934C876.789,432.869 873.914,420.41 873.914,403.544C873.914,389.352 875.772,378.471 879.493,370.893" style="fill:white;fill-rule:nonzero;"/>
            <path d="M849.935,420.502L845.308,420.502C842.894,429.178 838.921,435.635 833.395,439.861C827.869,444.091 820.516,446.205 811.353,446.205L806.124,446.205C803.323,446.205 801.301,445.82 800.042,445.055C798.789,444.283 797.93,443.296 797.472,442.094C797.015,440.89 796.784,437.596 796.784,432.212L796.784,404.645C801.494,404.645 807.012,405.26 809.489,406.491C811.963,407.716 814.136,410.117 816.002,413.682C817.874,417.249 819.1,421.185 819.683,426.776L823.659,426.776L823.659,376.043L819.683,376.043C818.904,383.662 817.108,388.782 814.291,392.687C811.48,396.593 806.937,398.544 800.678,398.544L796.781,398.544L796.781,364.515C796.749,358.599 802.025,359.285 802.025,359.285L808.18,359.285C815.633,359.285 820.712,359.72 823.42,360.587C828.065,362.03 831.655,364.296 834.194,367.376C836.735,370.458 838.704,375.54 840.108,382.615L843.44,382.615L843.44,353.614L760.553,353.614L760.553,357.608L763.165,357.608C766.35,357.608 768.861,358.282 770.694,359.625C771.997,360.539 772.89,361.843 773.37,363.526C773.614,364.533 773.736,367.251 773.736,371.677L773.736,432.986C773.736,437.892 773.471,440.924 772.939,442.074C772.265,443.707 771.295,444.868 770.046,445.539C768.306,446.551 766.014,447.055 763.164,447.055L760.552,447.055L760.552,451.666L844.842,451.666L849.909,420.492L849.935,420.502Z" style="fill:white;fill-rule:nonzero;"/>
            <path d="M690.849,447.002L688.612,447.002C685.402,447.002 682.551,446.017 680.058,444.045C677.57,442.073 676.324,438.28 676.324,432.653L676.324,373.442L740.462,453.399L744.621,453.405L744.621,371.855C744.621,367.218 745.006,365.872 745.771,363.964C746.536,362.056 747.606,360.679 748.972,359.833C750.34,358.989 753.022,358.301 757.012,357.769L757.012,353.62L725.194,353.62L725.194,357.769C730.439,357.673 734.185,359.024 736.405,361.826C738.031,363.903 738.844,365.961 738.844,371.857L738.844,414.563L688.913,353.62L658.532,353.62L658.532,356.911C661.42,357.007 661.523,357.974 663.061,358.791L671.199,366.982L671.188,432.646C671.188,437.84 670.162,441.514 668.114,443.676C666.064,445.84 662.43,446.944 657.217,446.992L657.217,450.961L690.834,450.961L690.834,446.992L690.849,447.002Z" style="fill:white;fill-rule:nonzero;"/>
            <path d="M977.661,403.577C977.661,410.093 972.379,415.373 965.867,415.373C959.35,415.373 954.07,410.089 954.07,403.577C954.07,397.06 959.354,391.781 965.867,391.781C972.383,391.781 977.661,397.064 977.661,403.577Z" style="fill:white;fill-rule:nonzero;"/>
        </g>
    </g>
</svg>
